X: 39764
T: Thank God We're Surrounded By Water
R: jig
M: 6/8
K: Gmajor
DGG GFG|ABc d2 e|fef ded|cAG FEF|
DGG GFG|ABc d2 e|fef dcA|G3 G3:|
gdg gdg|gdg a2 g|fef ded|cAG F2 g|
gdg gdg|gdg a2 g|fef dcA|G3 G3|
gdg gdg|gdg a2 g|fef ded|cAG F2 E|
DGG GFG|ABc d2 e|fef dcA|G3 G3|

